X:1
T:Valse \`a 5 temps
R:Valse \`a 5 temps
G:Kazimodal
O:France, Alsace
C:Traditionnel (Lark camp 2015/04/02 v10 #37)
Z: Ronan Keryell, arrangement http://kazimodal.trad.org
Q:1/4=200
P:(AB)2A
M:2+3/4
L:1/4
K:C
P:A
%%MIDI gchord ccfff
%%MIDI gchord ffccc
%%MIDI chordprog 0
%%MIDI bassprog 0
|: "C"c "G"B d "F"c e | e "G"d/e/ f "C"e2 | c "G"B d "F"c e | g "G"f d "C"c2 :|
P:B
|: "C"g "G"f d "C"e c | g "G"f d "C"e2 | c "G"B d "F"c e |1 g "G"f d g2 :|2\
   g "G"f d "C"c2 ||
%%text Cromorne alto

